svgs/sharp-light/objects-column.svg

<svg xmlns="http://www.w3.org/2000/svg" viewBox="0 0 448 512"><!--! Font Awesome Pro 6.6.0 by @fontawesome - https://fontawesome.com License - https://fontawesome.com/license (Commercial License) Copyright 2024 Fonticons, Inc. --><path d="M32 64l0 192 128 0 0-192L32 64zM0 32l32 0 128 0 32 0 0 32 0 192 0 32-32 0L32 288 0 288l0-32L0 64 0 32zM288 256l0 192 128 0 0-192-128 0zm-32-32l32 0 128 0 32 0 0 32 0 192 0 32-32 0-128 0-32 0 0-32 0-192 0-32zM160 352L32 352l0 96 128 0 0-96zM32 320l128 0 32 0 0 32 0 96 0 32-32 0L32 480 0 480l0-32 0-96 0-32 32 0zM288 64l0 96 128 0 0-96L288 64zM256 32l32 0 128 0 32 0 0 32 0 96 0 32-32 0-128 0-32 0 0-32 0-96 0-32z"/></svg>

<svg xmlns="http://www.w3.org/2000/svg" viewBox="0 0 448 512"><!--! Font Awesome Pro 6.4.0 by @fontawesome - https://fontawesome.com License - https://fontawesome.com/license (Commercial License) Copyright 2023 Fonticons, Inc. --><path d="M32 64V256H160V64H32zM0 32H32 160h32V64 256v32H160 32 0V256 64 32zM288 256V448H416V256H288zm-32-32h32H416h32v32V448v32H416 288 256V448 256 224zM160 352H32v96H160V352zM32 320H160h32v32 96 32H160 32 0V448 352 320H32zM288 64v96H416V64H288zM256 32h32H416h32V64v96 32H416 288 256V160 64 32z"/></svg>
